X:1
T:Title
%%score { 1 | ( 2 3 ) }
L:1/8
Q:1/4=116
M:2/2
K:C
V:1 treble nm="Grand Piano"
V:2 bass 
V:3 bass 
V:1
 C3 E G2 c2 | e4 .c4 | [Ge]3 [Gd] [CGc]2 [CFA]2 | [EG]8 | C3 E G2 c2 | e4 c2 [Ge]2 | %6
w: Adam~Geibel * * *||||||
 [Gd]3 [GB] [GA]2 [^Fd]2 | G8 | G3 B d2 c2 | c4 B2 G2 | B3 d f2 e2 | e4 .d4 | %12
w: ||||||
 [Ge]3 [Ge] [Gd]2 [Gc]2 | [FA]4 [Ac]2 [Ad]2 | e2 c2 B3 d | [CEc]8 | C3 E G2 c2 | e4 c2 [Ge]2 | %18
w: ||||||
 [Gd]3 [GB] [GA]2 [^Fd]2 | G8 | G3 B d2 c2 | c4 B2 G2 | B3 d f2 e2 | e4 .d4 | %24
w: ||||||
 [Ge]3 [Ge] [Gd]2 [Gc]2 | [FA]4 [Ac]2 [Ad]2 | e2 c2 B3 d | [Ec]8 | G3 G G2 G2 | B2 c>c d4 | %30
w: ||||||
 G3 G G2 G2 |[M:7/8] d2 d>e f3 |[M:1/4] G2 |[M:4/4] [Ge]3 [Ge] [Gd]2 [Gc]2 | %34
w: ||||
 [FA]2 [GB]2 [Ac]3 [Ad] | e2 c2 B3 d | [Ec]6 z2 |] %37
w: |||
V:2
 C,3 E, G,2 C2 | E4 .C4 | [C,C]3 [D,B,] E,2 F,A, | C8 | C,3 E, G,2 C2 | E4 C2 [C,C]2 | %6
 [D,B,]3 [D,D] [D,C]2 [D,C]2 | [G,B,]8 | [G,B,]3[K:treble] [G,DG] [G,FG]2 [G,EG]2 | %9
 [G,EG]4 [G,DG]2 [G,B,]2 | [G,DG]3 [G,B,G] [G,DG]2 [G,CG]2 | .[G,G]4- .[G,B,G]4 | %12
 [C,C]3 [C,C] [D,B,]2 [E,C]2 | [F,C]4 [F,C]2 [F,C]2 | [G,CG]2 [G,EG]2 [G,DG]3 [G,B,F] | C,8 | %16
 C,3 E, G,2 C2 | E4 C2 [C,C]2 | [D,B,]3 [D,D] [D,C]2 [D,C]2 | [G,B,]8 | %20
 [G,B,]3[K:treble] [G,DG] [G,FG]2 [G,EG]2 | [G,EG]4 [G,DG]2 [G,B,]2 | %22
 [G,DG]3 [G,B,G] [G,DG]2 [G,CG]2 | .[G,G]4- .[G,B,G]4 | [C,C]3 [C,C] [D,B,]2 [E,C]2 | %25
 [F,C]4 [F,C]2 [F,C]2 | [G,CG]2 [G,EG]2 [G,DG]3 [G,B,F] | [C,C]8 | z8 | %29
 [G,G]2 [G,A,G]>[G,A,G] [G,B,G]4 | z8 |[M:7/8] [G,B,G]2 [G,CG]>[G,CG] [G,DG]3 |[M:1/4] G,2 | %33
[M:4/4][K:bass] [C,C]3 [C,C] [D,B,]2 [E,C]2 | [F,C]2 [F,C]2 [F,C]3 [F,C] | %35
 [G,CG]2 [G,EG]2 [G,DG]3 [G,B,F] | [C,C]6 z2 |] %37
V:3
 x8 | x8 | x8 | x8 | x8 | x8 | x8 | x8 | x3[K:treble] x5 | x8 | x8 | C4 z4 | x8 | x8 | x8 | x8 | %16
 x8 | x8 | x8 | x8 | x3[K:treble] x5 | x8 | x8 | C4 z4 | x8 | x8 | x8 | x8 | x8 | x8 | x8 | %31
[M:7/8] x7 |[M:1/4] x2 |[M:4/4][K:bass] x8 | x8 | x8 | x8 |] %37

